brandFactory_export/1.Light/Otros _1Light.svg

<?xml version="1.0" encoding="UTF-8"?>
<svg width="24px" height="24px" viewBox="0 0 24 24" version="1.1" xmlns="http://www.w3.org/2000/svg" xmlns:xlink="http://www.w3.org/1999/xlink">
    <title>1.Light/Otros _1Light</title>
    <g id="Symbols" stroke="none" stroke-width="1" fill="none" fill-rule="evenodd">
        <g id="1.Light/Otros-_1Light" fill="#5CB615" fill-rule="nonzero">
            <path d="M19.7294118,22.1747899 L19.7294118,7.92605042 L16.6739496,7.92605042 C15.5042017,7.92605042 14.502521,7.5394958 13.7663866,6.82352941 C13.0302521,6.09747899 12.6369748,5.11596639 12.6369748,3.96302521 L12.6369748,0.994957983 L4.45882353,0.994957983 C4.24369748,0.994957983 3.97815126,1.24369748 3.97815126,1.45210084 L3.97815126,8.36302521 L4.02857143,18.1445378 L3.97815126,22.1848739 C3.97815126,22.4033613 4.22352941,22.6319328 4.45882353,22.6319328 L19.2487395,22.6319328 C19.4941176,22.6319328 19.7294118,22.4134454 19.7294118,22.1747899 L19.7294118,22.1747899 Z M13.6218487,1.21008403 L13.6218487,3.95966387 C13.6218487,4.83361345 13.907563,5.57983193 14.4588235,6.10420168 C15,6.63865546 15.7764706,6.92773109 16.6773109,6.92773109 L19.4638655,6.92773109 L13.6218487,1.21008403 Z M20.6739496,6.90084034 C20.6941176,6.97142857 20.7142857,7.02857143 20.7142857,7.09915966 L20.7142857,22.1714286 C20.7142857,22.9546218 20.0352941,23.6201681 19.2521008,23.6201681 L4.46218487,23.6201681 C3.68571429,23.6201681 3,22.9445378 3,22.1714286 L3.05042017,18.1411765 L3,8.3697479 L3,1.4487395 C3,0.692436975 3.69915966,0 4.46218487,0 L13.4672269,0 C13.6756303,0 13.8907563,0.0907563025 14.0352941,0.238655462 L20.4689076,6.51428571 C20.5731092,6.62184874 20.6336134,6.76302521 20.6739496,6.90084034 Z M15.712605,15.9663866 C15.712605,16.4941176 15.3394958,16.8705882 14.8386555,16.8705882 C14.3176471,16.8705882 13.9445378,16.4941176 13.9445378,15.9865546 L13.9445378,15.9663866 C13.9445378,15.4689076 14.3277311,15.0722689 14.8184874,15.0722689 C15.3294118,15.0756303 15.712605,15.4722689 15.712605,15.9663866 L15.712605,15.9663866 Z M12.4218487,15.9663866 C12.4218487,16.4941176 12.0386555,16.8705882 11.5378151,16.8705882 C11.0268908,16.8705882 10.6436975,16.4941176 10.6436975,15.9865546 L10.6436975,15.9663866 C10.6436975,15.4689076 11.0268908,15.0722689 11.5277311,15.0722689 C12.0319328,15.0756303 12.4218487,15.4722689 12.4218487,15.9663866 L12.4218487,15.9663866 Z M9.12436975,15.9663866 C9.12436975,16.4941176 8.74117647,16.8705882 8.24033613,16.8705882 C7.72941176,16.8705882 7.34621849,16.4941176 7.34621849,15.9865546 L7.34621849,15.9663866 C7.34621849,15.4689076 7.7394958,15.0722689 8.2302521,15.0722689 C8.74117647,15.0756303 9.12436975,15.4722689 9.12436975,15.9663866 L9.12436975,15.9663866 Z" id="Otros-_1Light"></path>
        </g>
    </g>
</svg>

<svg width="24" height="24" viewBox="0 0 24 24" xmlns="http://www.w3.org/2000/svg"><path d="M19.73 22.175V7.926h-3.056c-1.17 0-2.171-.387-2.908-1.102-.736-.727-1.129-1.708-1.129-2.861V.995H4.459c-.215 0-.48.249-.48.457v6.911l.05 9.782-.05 4.04c0 .218.245.447.48.447h14.79c.245 0 .48-.219.48-.457zM13.621 1.21v2.75c0 .874.286 1.62.837 2.144.541.535 1.317.824 2.218.824h2.787L13.622 1.21zm7.052 5.69c.02.071.04.129.04.2V22.17c0 .784-.679 1.45-1.462 1.45H4.462C3.686 23.62 3 22.944 3 22.17l.05-4.03L3 8.37V1.449C3 .692 3.7 0 4.462 0h9.005c.209 0 .424.09.568.239l6.434 6.275a.917.917 0 01.205.387zm-4.961 9.066c0 .528-.374.905-.874.905-.521 0-.894-.377-.894-.884v-.02c0-.498.383-.895.873-.895.511.004.895.4.895.894zm-3.291 0c0 .528-.383.905-.884.905-.511 0-.894-.377-.894-.884v-.02c0-.498.383-.895.884-.895a.89.89 0 01.894.894zm-3.298 0c0 .528-.383.905-.884.905-.51 0-.894-.377-.894-.884v-.02c0-.498.393-.895.884-.895.511.004.894.4.894.894z" fill="#5CB615" fill-rule="nonzero"/></svg>
